svgs/sharp-light/transporter-5.svg

<svg xmlns="http://www.w3.org/2000/svg" viewBox="0 0 512 512"><!--! Font Awesome Pro 6.6.0 by @fontawesome - https://fontawesome.com License - https://fontawesome.com/license (Commercial License) Copyright 2024 Fonticons, Inc. --><path d="M480 16l0 16 16 0 16 0 0 32-16 0-16 0 0 16 0 16-32 0 0-16 0-16-16 0-16 0 0-32 16 0 16 0 0-16 0-16 32 0 0 16zM64 144l0 16 16 0 16 0 0 32-16 0-16 0 0 16 0 16-32 0 0-16 0-16-16 0L0 192l0-32 16 0 16 0 0-16 0-16 32 0 0 16zM208 0l16 0 64 0 16 0 0 32-16 0-64 0-16 0 0-32zM160 128l16 0 160 0 16 0 0 32-16 0-160 0-16 0 0-32zM96 256l16 0 288 0 16 0 0 32-16 0-288 0-16 0 0-32zm64 128l16 0 160 0 16 0 0 32-16 0-160 0-16 0 0-32zM96 448l16 0 288 0 16 0 0 16 0 32 0 16-32 0 0-16 0-16-256 0 0 16 0 16-32 0 0-16 0-32 0-16z"/></svg>

<svg xmlns="http://www.w3.org/2000/svg" viewBox="0 0 512 512"><!--! Font Awesome Pro 6.5.2 by @fontawesome - https://fontawesome.com License - https://fontawesome.com/license (Commercial License) Copyright 2024 Fonticons, Inc. --><path d="M480 16V32h16 16V64H496 480V80 96H448V80 64H432 416V32h16 16V16 0h32V16zM64 144v16H80 96v32H80 64v16 16H32V208 192H16 0V160H16 32V144 128H64v16zM208 0h16 64 16V32H288 224 208V0zM160 128h16H336h16v32H336 176 160V128zM96 256h16H400h16v32H400 112 96V256zm64 128h16H336h16v32H336 176 160V384zM96 448h16H400h16v16 32 16H384V496 480H128v16 16H96V496 464 448z"/></svg>
